suite-common/icons/assets/icons/password.svg

<svg xmlns="http://www.w3.org/2000/svg" fill="none" viewBox="0 0 24 24">
  <path stroke="#171717" stroke-linecap="round" stroke-linejoin="round" stroke-width="1.5" d="M3.75 5.25v13.5m6-9.75v3m-2.85-.928L9.75 12m-1.762 2.428L9.75 12m1.762 2.428L9.75 12m2.85-.928L9.75 12m9-3v3m-2.85-.928 2.85.928m-1.762 2.428L18.75 12m1.762 2.428L18.75 12m2.85-.928L18.75 12"/>
</svg>

<svg viewBox="0 0 24 24" fill="none" xmlns="http://www.w3.org/2000/svg"><path d="M3.75 5.25v13.5M9.75 9v3M6.9 11.072 9.75 12M7.988 14.428 9.75 12M11.512 14.428 9.75 12M12.6 11.072 9.75 12M18.75 9v3M15.9 11.072l2.85.928M16.988 14.428 18.75 12M20.512 14.428 18.75 12M21.6 11.072 18.75 12" stroke="#171717" stroke-width="1.5" stroke-linecap="round" stroke-linejoin="round"/></svg>
